assets/svg/app/link.svg

<svg width="16" height="16" viewBox="0 0 16 16" fill="none" xmlns="http://www.w3.org/2000/svg">
<path fill-rule="evenodd" clip-rule="evenodd" d="M3.33333 3.33333V12.6667H12.6667V8H14V12.6667C14 13.4 13.4 14 12.6667 14H3.33333C2.59333 14 2 13.4 2 12.6667V3.33333C2 2.6 2.59333 2 3.33333 2H8V3.33333H3.33333ZM9.33333 3.33333V2H14V6.66667H12.6667V4.27333L6.11333 10.8267L5.17333 9.88667L11.7267 3.33333H9.33333Z" fill="currentColor"/>
</svg>

<svg width="16" height="16" fill="none" xmlns="http://www.w3.org/2000/svg">
    <path fill-rule="evenodd" clip-rule="evenodd" d="M3.333 3.333v9.334h9.334V8H14v4.667C14 13.4 13.4 14 12.667 14H3.333C2.593 14 2 13.4 2 12.667V3.333C2 2.6 2.593 2 3.333 2H8v1.333H3.333Zm6 0V2H14v4.667h-1.333V4.273l-6.554 6.554-.94-.94 6.554-6.554H9.333Z" fill="currentColor"/>
</svg>
